material/.icons/material/pin-off-outline.svg

<svg xmlns="http://www.w3.org/2000/svg" viewBox="0 0 24 24"><path d="M8 6.2V4H7V2h10v2h-1v8l2 2v2h-.2L14 12.2V4h-4v4.2l-2-2m12 14.5L18.7 22l-5.9-5.9V22h-1.6v-6H6v-2l2-2v-.7l-6-6L3.3 4 20 20.7M8.8 14h1.8l-.9-.9-.9.9z"/></svg>

<?xml version="1.0" encoding="UTF-8"?><!DOCTYPE svg PUBLIC "-//W3C//DTD SVG 1.1//EN" "http://www.w3.org/Graphics/SVG/1.1/DTD/svg11.dtd"><svg xmlns="http://www.w3.org/2000/svg" xmlns:xlink="http://www.w3.org/1999/xlink" version="1.1" id="mdi-pin-off-outline" width="24" height="24" viewBox="0 0 24 24"><path d="M8,6.2V4H7V2H17V4H16V12L18,14V16H17.8L14,12.2V4H10V8.2L8,6.2M20,20.7L18.7,22L12.8,16.1V22H11.2V16H6V14L8,12V11.3L2,5.3L3.3,4L20,20.7M8.8,14H10.6L9.7,13.1L8.8,14Z" /></svg>
